build/category/GanttChartOutline.svg

<svg xmlns="http://www.w3.org/2000/svg" fill="none" viewBox="0 0 24 24" focusable="false"><path d="M0 0H24V24H0z" transform="matrix(1 0 0 -1 0 24)"/><path fill="#74767B" fill-rule="evenodd" d="M4.00586 19.9648C4.00586 20.3238 4.29687 20.6148 4.65586 20.6148C5.01484 20.6148 5.30586 20.3238 5.30586 19.9648L5.30586 3.99955C5.30586 3.64056 5.01484 3.34955 4.65586 3.34955C4.29687 3.34955 4.00586 3.64056 4.00586 3.99955L4.00586 19.9648ZM12.0235 6.80733C12.0235 5.73041 11.1505 4.8574 10.0736 4.8574L8.54694 4.8574C7.47003 4.8574 6.59702 5.73041 6.59702 6.80733C6.59702 7.88424 7.47003 8.75725 8.54694 8.75725L10.0736 8.75725C11.1505 8.75725 12.0235 7.88424 12.0235 6.80733ZM8.54694 7.45725L10.0736 7.45725C10.4326 7.45725 10.7235 7.16627 10.7235 6.80733C10.7235 6.44838 10.4326 6.1574 10.0736 6.1574L8.54694 6.1574C8.188 6.1574 7.89702 6.44838 7.89702 6.80733C7.89702 7.16627 8.188 7.45725 8.54694 7.45725ZM16.0507 10.0664C17.1276 10.0664 18.0006 10.9394 18.0006 12.0163C18.0006 13.0932 17.1276 13.9662 16.0507 13.9662L10.7574 13.9662C9.68048 13.9662 8.80747 13.0932 8.80747 12.0163C8.80747 10.9394 9.68048 10.0664 10.7574 10.0664L16.0507 10.0664ZM16.0507 12.6662L10.7574 12.6662C10.3984 12.6662 10.1075 12.3753 10.1075 12.0163C10.1075 11.6574 10.3984 11.3664 10.7574 11.3664L16.0507 11.3664C16.4096 11.3664 16.7006 11.6574 16.7006 12.0163C16.7006 12.3753 16.4096 12.6662 16.0507 12.6662ZM18.1083 15.2422C19.1852 15.2422 20.0582 16.1152 20.0582 17.1921C20.0582 18.269 19.1852 19.142 18.1083 19.142L15.6234 19.142C14.5464 19.142 13.6734 18.269 13.6734 17.1921C13.6734 16.1152 14.5464 15.2422 15.6234 15.2422L18.1083 15.2422ZM18.1083 17.842L15.6234 17.842C15.2644 17.842 14.9734 17.551 14.9734 17.1921C14.9734 16.8331 15.2644 16.5422 15.6234 16.5422L18.1083 16.5422C18.4672 16.5422 18.7582 16.8331 18.7582 17.1921C18.7582 17.551 18.4672 17.842 18.1083 17.842Z"/></svg>

<svg xmlns="http://www.w3.org/2000/svg" fill="none" viewBox="0 0 24 24" focusable="false"><path fill="#74767B" fill-rule="evenodd" d="M4.65 20.61c-.36 0-.65-.29-.65-.65V3.99c0-.35.29-.65.65-.65s.65.3.65.65v15.97c0 .36-.29.65-.65.65M12.02 6.8c0-1.07-.87-1.95-1.95-1.95H8.54c-1.08 0-1.95.88-1.95 1.95 0 1.08.87 1.95 1.95 1.95h1.53c1.08 0 1.95-.87 1.95-1.95m-3.48.65h1.53c.36 0 .65-.29.65-.65s-.29-.65-.65-.65H8.54c-.36 0-.65.29-.65.65s.29.65.65.65m7.51 2.61c1.07 0 1.95.87 1.95 1.95s-.88 1.95-1.95 1.95h-5.3c-1.07 0-1.95-.87-1.95-1.95s.88-1.95 1.95-1.95zm0 2.6h-5.3c-.36 0-.65-.29-.65-.65s.29-.65.65-.65h5.3c.35 0 .65.29.65.65s-.3.65-.65.65m2.05 2.58c1.08 0 1.95.87 1.95 1.95 0 1.07-.87 1.95-1.95 1.95h-2.48c-1.08 0-1.95-.88-1.95-1.95 0-1.08.87-1.95 1.95-1.95zm0 2.6h-2.48c-.36 0-.65-.29-.65-.65s.29-.65.65-.65h2.48c.36 0 .65.29.65.65s-.29.65-.65.65"/></svg>
